packages/nimble-tokens/assets-icons/TreeView_16x16.svg

<?xml version="1.0" encoding="iso-8859-1"?>
<!-- Generator: Adobe Illustrator 22.1.0, SVG Export Plug-In . SVG Version: 6.00 Build 0)  -->
<svg version="1.1" id="Layer_1" xmlns="http://www.w3.org/2000/svg" xmlns:xlink="http://www.w3.org/1999/xlink" x="0px" y="0px"
	 viewBox="0 0 16 16" style="enable-background:new 0 0 16 16;" xml:space="preserve">
<path style="opacity:0.7;" d="M10,4v3h6v2h-6v3h6v2h-6H8v-2V9V7V4H4V2h12v2H10z M0,4h2V2H0V4z M6,12H4v2h2V12z M6,7H4v2h2V7z"/>
</svg>

<svg id="Layer_1" data-name="Layer 1" xmlns="http://www.w3.org/2000/svg" viewBox="0 0 16 16"><path d="M10,4V7h6V9H10v3h6v2H8V4H4V2H16V4ZM0,4H2V2H0Zm6,8H4v2H6ZM6,7H4V9H6Z" opacity="0.7"/></svg>
